outputs/icons/action/settings_sharp.svg

<svg width="1200" height="1200" viewBox="0 0 1200 1200" fill="none" xmlns="http://www.w3.org/2000/svg"><g clip-path="url(#clip0_117_754)"><path d="M972.005 649.5L971.505 650.5C973.505 634 975.505 617 975.505 600C975.505 583 974.005 567 972.005 550.5L972.505 551.5L1094.505 455.5L973.005 244.5L829.505 302.5L830.005 303C804.005 283 775.505 266 744.505 253H745.005L722.005 100H478.506L456.506 253.5H457.006C426.006 266.5 397.506 283.5 371.506 303.5L372.006 303L228.006 244.5L106.006 455.5L228.006 551.5L228.506 550.5C226.506 567 225.006 583 225.006 600C225.006 617 226.506 634 229.006 650.5L228.506 649.5L123.506 732L107.006 745L228.506 955L372.506 897.5L371.506 895.5C398.006 916 426.506 933 458.006 946H456.506L479.006 1100H721.505C721.505 1100 723.005 1091 724.505 1079L743.505 946.5H743.005C774.005 933.5 803.005 916.5 829.505 896L828.505 898L972.505 955.5L1094.005 745.5C1094.005 745.5 1087.005 739.5 1077.505 732.5L972.005 649.5ZM600.005 775C503.505 775 425.006 696.5 425.006 600C425.006 503.5 503.505 425 600.005 425C696.505 425 775.005 503.5 775.005 600C775.005 696.5 696.505 775 600.005 775Z" fill="#1D1E23"/></g><defs><clipPath id="clip0_117_754"><path width="24" fill="white" d="M0 0H1200V1200H0V0z"/></clipPath></defs></svg>

<svg xmlns="http://www.w3.org/2000/svg" width="1200" height="1200" fill="none"><g clip-path="url(#a)"><path fill="#000" d="m972.005 649.5-.5 1c2-16.5 4-33.5 4-50.5s-1.5-33-3.5-49.5l.5 1 122-96-121.5-211-143.5 58 .5.5c-26-20-54.5-37-85.5-50h.5l-23-153H478.506l-22 153.5h.5c-31 13-59.5 30-85.5 50l.5-.5-144-58.5-122 211 122 96 .5-1c-2 16.5-3.5 32.5-3.5 49.5s1.5 34 4 50.5l-.5-1-105 82.5-16.5 13 121.5 210 144-57.5-1-2c26.5 20.5 55 37.5 86.5 50.5h-1.5l22.5 154h242.499s1.5-9 3-21l19-132.5h-.5c31-13 60-30 86.5-50.5l-1 2 144 57.5 121.5-210s-7-6-16.5-13zm-372 125.5c-96.5 0-174.999-78.5-174.999-175s78.499-175 174.999-175 175 78.5 175 175-78.5 175-175 175"/></g><defs><clipPath id="a"><path fill="#fff" d="M0 0h1200v1200H0z"/></clipPath></defs></svg>
